lib/flags/dz-algeria.svg

<svg xmlns="http://www.w3.org/2000/svg" fill="none" aria-hidden="true" viewBox="0 0 42 30"><g id="Country=DZ - Algeria, Size=sm (36x24)" filter="url(#filter0_dd_91_28657)"><g clip-path="url(#clip0_91_28657)"><g id="flag"><path id="bottom" fill="#F7FCFF" fill-rule="evenodd" d="M21 2H39V26H21V2Z" clip-rule="evenodd"/><path id="left" fill="#36A400" fill-rule="evenodd" d="M3 2H21V26H3V2Z" clip-rule="evenodd"/><path id="Union" fill="#FF0000" fill-rule="evenodd" d="M23.015 8.79468C24.7274 8.79468 26.2921 9.35669 27.4884 10.2845C25.9733 8.58391 23.63 7.49292 21 7.49292C16.4315 7.49292 12.728 10.7849 12.728 14.8458C12.728 18.9067 16.4315 22.1987 21 22.1987C23.63 22.1987 25.9734 21.1076 27.4885 19.407C26.2922 20.3349 24.7274 20.8969 23.015 20.8969C19.2553 20.8969 16.2075 18.1877 16.2075 14.8458C16.2075 11.5038 19.2553 8.79468 23.015 8.79468ZM26.1873 11.5435L24.2721 13.4729L21.5213 12.7992L23.0463 14.9195L21.5213 17.1766L24.4068 16.2533L25.9843 18.442V15.9017L28.562 14.9195L25.9843 14.0987L26.1873 11.5435Z" clip-rule="evenodd"/></g></g></g><defs><filter id="filter0_dd_91_28657" width="42" height="30" x="0" y="0" color-interpolation-filters="sRGB" filterUnits="userSpaceOnUse"><feFlood flood-opacity="0" result="BackgroundImageFix"/><feColorMatrix in="SourceAlpha" result="hardAlpha" values="0 0 0 0 0 0 0 0 0 0 0 0 0 0 0 0 0 0 127 0"/><feOffset dy="1"/><feGaussianBlur stdDeviation="1"/><feColorMatrix values="0 0 0 0 0.0627451 0 0 0 0 0.0941176 0 0 0 0 0.156863 0 0 0 0.06 0"/><feBlend in2="BackgroundImageFix" result="effect1_dropShadow_91_28657"/><feColorMatrix in="SourceAlpha" result="hardAlpha" values="0 0 0 0 0 0 0 0 0 0 0 0 0 0 0 0 0 0 127 0"/><feOffset dy="1"/><feGaussianBlur stdDeviation="1.5"/><feColorMatrix values="0 0 0 0 0.0627451 0 0 0 0 0.0941176 0 0 0 0 0.156863 0 0 0 0.1 0"/><feBlend in2="effect1_dropShadow_91_28657" result="effect2_dropShadow_91_28657"/><feBlend in="SourceGraphic" in2="effect2_dropShadow_91_28657" result="shape"/></filter><clipPath id="clip0_91_28657"><rect width="36" height="24" x="3" y="2" fill="white" rx="2"/></clipPath></defs></svg>

<svg xmlns="http://www.w3.org/2000/svg" fill="none" aria-hidden="true" viewBox="0 0 42 30"><g filter="url(#a)"><g fill-rule="evenodd" clip-path="url(#b)" clip-rule="evenodd"><path fill="#F7FCFF" d="M21 2h18v24H21V2Z"/><path fill="#36A400" d="M3 2h18v24H3V2Z"/><path fill="red" d="M23.015 8.795c1.712 0 3.277.562 4.473 1.49C25.973 8.583 23.63 7.492 21 7.492c-4.569 0-8.272 3.292-8.272 7.353 0 4.06 3.704 7.353 8.272 7.353 2.63 0 4.973-1.091 6.488-2.792-1.196.928-2.76 1.49-4.473 1.49-3.76 0-6.808-2.71-6.808-6.051 0-3.342 3.048-6.051 6.808-6.051Zm3.172 2.748-1.915 1.93-2.75-.674 1.524 2.12-1.525 2.258 2.886-.924 1.577 2.189v-2.54l2.578-.982-2.578-.821.203-2.556Z"/></g></g><defs><clipPath id="b"><rect width="36" height="24" x="3" y="2" fill="#fff" rx="2"/></clipPath><filter id="a" width="42" height="30" x="0" y="0" color-interpolation-filters="sRGB" filterUnits="userSpaceOnUse"><feFlood flood-opacity="0" result="BackgroundImageFix"/><feColorMatrix in="SourceAlpha" result="hardAlpha" values="0 0 0 0 0 0 0 0 0 0 0 0 0 0 0 0 0 0 127 0"/><feOffset dy="1"/><feGaussianBlur stdDeviation="1"/><feColorMatrix values="0 0 0 0 0.0627451 0 0 0 0 0.0941176 0 0 0 0 0.156863 0 0 0 0.06 0"/><feBlend in2="BackgroundImageFix" result="effect1_dropShadow_91_28657"/><feColorMatrix in="SourceAlpha" result="hardAlpha" values="0 0 0 0 0 0 0 0 0 0 0 0 0 0 0 0 0 0 127 0"/><feOffset dy="1"/><feGaussianBlur stdDeviation="1.5"/><feColorMatrix values="0 0 0 0 0.0627451 0 0 0 0 0.0941176 0 0 0 0 0.156863 0 0 0 0.1 0"/><feBlend in2="effect1_dropShadow_91_28657" result="effect2_dropShadow_91_28657"/><feBlend in="SourceGraphic" in2="effect2_dropShadow_91_28657" result="shape"/></filter></defs></svg>
